X:1
T:Major Molle
T:Major Molle
T:Andrew Gow
C:Andrew Gow
L:1/8
Q:1/8=232
M:4/4
K:Bmin
V:1 treble 
V:1
|: Bf fd dc B^A | Bf fe d2 c2 | Bf f^g a/g/f/g/ af | ec Ac e2 dc | Bf fd dc B^A | Bf fe d2 c2 | %6
 Bf f^g a/g/f/g/ af | ec Ac e2 dc | BF F2 dB c^A | BF F2 d2 cd | BF F2 dB ce | cA Ac e2 dc | %12
 BF F2 dB c^A | BF F2 d2 cd | Bf f^g a/g/f/g/ af | ec Ac e2 dc :| %16

